-----BEGIN PGP SIGNATURE-----

iQIzBAABCgAdFiEEFErtCle+fUroNdnYysWsT3QWSxcFAmqgbecACgkQysWsT3QW
Sxe6Pw/9HS94EFJ36ylI6ULlBlwSIF0XmWnwQVEln+SczcSmJ+l9Tu/jbih+RP0h
FrXO/R/u1wy5ZgSqXzWvgz2vsxdxWqCHT5xs7mGbHh450oGwILu36A9+q3myQURg
48DOMlz2VbOhYZ0OETKOzFCA0EiLm8E+bbQv7kqR6tNA440j+HhxAN0OV29FLO2l
QnhL6/pC7peOemgcBsH3OFsXPpPxN79GuGzTDlP2U6+GzXT1oDiUVkKHMdwtD5s5
zpsx6bCBWQXmfhzmpk7xmv5w9iNeYBAHoxLYJrP0EGuY1M9FHtqofO0Zj85riPxs
TdPZJlgzs5W1gIxcH0+y1kVnECZMP/EsYv6VGNbNxSSgCXLXAP8ZYv66UGpnlD04
SEImywG3IEyyce+w37NDxpMWq8/6Q0R7EmB2rP+hQbbiVkaYAaxwlfHCmk2shcJ3
Ma4RjQSIVDZQDYmydADVlGUznkzOirUF9Ud1hn4oit6y7kZD/B68XmUevVKirOdd
LlYXr+Y0xWR9XaNW/aPVYwJMVpMDktqDP1lYCnPc44UdznMftcR/11qisUHw88G3
BiG1rGlbT58OqNQIjVuE46hSm0lJxqxr5f6IGFWsH1dD4e+zyPzIDN8VQrZmT6YT
27q/eZiG6qMSwfUlkdZtssn/NCfJ0kukxHjBB1G46leXPIeAWjg=
=yRtk
-----END PGP SIGNATURE-----
